X:4
T:Assinaboine Polka
C:Andy De Jarlis
M:2/4
L:1/8
Z:abc by Bruce Osborne - bosborne@kos.net
K:D
A/G/|F/A/d/f/ a^g/a/|bc c/d/c/B/|A/c/e/^g/ a^g/a/|bd dA/G/|!
F/A/d/f/ a^g/a/|bB B2|c/d/c/B/ A/c/e/c/|df d:|!
K:A
c/B/|A/c/e/^g/ a^g/a/|bf f2|^g/a/^g/f/ ^gd/e/|f/d/e/d/ c/d/c/B/|!
A/c/e/^g/ a^g/a/|bf f2|^g/a/^g/f/ e/d/c/B/|AA/A/ A:|!
K:G
B/c/|dB gB|c/d/c/B/ AA/B/|cA fd/f/|a/g/f/e/ dB/c/|!
dB gB|c/d/c/B/ A2|f/g/f/e/ d/c/B/A/|GB G:|!
